X:185
T: Shetland Collie
N: "unknown Shetland tune" track 6B
S: "Barking Mad" - 4 Men and a Dog
Z: transcribed by B.Black
R: reel
M: 4/4
L: 1/8
K: D
A,2 A,B, A,B,DE |F2 DF EDB,D |G2 FG EDB,D |GEFD EFDB, |
A,2 A,B, A,B,DE |F2 DF EDB,D |G2 FG EDB,G, |1 A,B,DE D4 :|
|2 A,B,DE DEFG ||ADDD ADBD | ADDD EDB,D |G2 FG EDB,D |
GEFD E2 FG|ADDD ADBD|ADDD EDB,D|G2 FG EDB,G,|
|1 A,B,DE D4 :|2 A,B,DE DEFG ||
